icons/fill-new-office-doc-document-delete-close.svg

<svg xmlns="http://www.w3.org/2000/svg" width="32px" height="32px" viewBox="0 0 32 32" version="1.1">
    <title>fill-new-office-doc-document-delete-close</title>
    <g id="fill-new-office-doc-document-delete-close" stroke-width="1" fill-rule="evenodd">
        <path d="M18,2 L18,11 C18,11.5522847 18.4477153,12 19,12 L28,12 L28,29 C28,29.5522847 27.5522847,30 27,30 L5,30 C4.44771525,30 4,29.5522847 4,29 L4,3 C4,2.44771525 4.44771525,2 5,2 L18,2 Z M13.7071068,15.2928932 C13.3165825,14.9023689 12.6834175,14.9023689 12.2928932,15.2928932 C11.9023689,15.6834175 11.9023689,16.3165825 12.2928932,16.7071068 L14.585,19 L12.2928932,21.2928932 C11.9324093,21.6533772 11.9046797,22.2206082 12.2097046,22.6128994 L12.2928932,22.7071068 C12.6834175,23.0976311 13.3165825,23.0976311 13.7071068,22.7071068 L16,20.415 L18.2928932,22.7071068 C18.6533772,23.0675907 19.2206082,23.0953203 19.6128994,22.7902954 L19.7071068,22.7071068 C20.0976311,22.3165825 20.0976311,21.6834175 19.7071068,21.2928932 L17.415,19 L19.7071068,16.7071068 C20.0675907,16.3466228 20.0953203,15.7793918 19.7902954,15.3871006 L19.7071068,15.2928932 C19.3165825,14.9023689 18.6834175,14.9023689 18.2928932,15.2928932 L16,17.585 L13.7071068,15.2928932 Z M20.0010929,2.09031818 C20.1086568,2.13942374 20.2076737,2.2076737 20.2928932,2.29289322 L27.7071068,9.70710678 C27.7925934,9.79259345 27.861004,9.89196417 27.9101431,9.99991892 L20,10 L20.0010929,2.09031818 Z" id="&#24418;&#29366;" />
    </g>
</svg>

<svg xmlns="http://www.w3.org/2000/svg" viewBox="0 0 32 32"><path fill="currentColor" d="M18 2v9a1 1 0 0 0 1 1h9v17a1 1 0 0 1-1 1H5a1 1 0 0 1-1-1V3a1 1 0 0 1 1-1zm-4.293 13.293a1 1 0 0 0-1.414 1.414L14.585 19l-2.292 2.293a1 1 0 0 0-.083 1.32l.083.094a1 1 0 0 0 1.414 0L16 20.415l2.293 2.292a1 1 0 0 0 1.32.083l.094-.083a1 1 0 0 0 0-1.414L17.415 19l2.292-2.293a1 1 0 0 0 .083-1.32l-.083-.094a1 1 0 0 0-1.414 0L16 17.585zM20.001 2.09a1 1 0 0 1 .292.203l7.414 7.414a1 1 0 0 1 .203.293H20z"/></svg>
